kora/status/symbolic/my-caffeine-off-symbolic.svg

<svg xmlns="http://www.w3.org/2000/svg" width="16" height="16">
 <path style="fill:#dfdfdf" d="M 4,6 C 1.7909,6 0,7.79 0,10 0,12.21 1.7909,14 4,14 4.2425,14 4.4843,13.98 4.7227,13.93 5.462,15.48 6.958,16 10,16 16,16 16,14 16,6 Z M 4,8 H 4.0078 C 4.0194,9.6 4.06,10.94 4.2031,11.99 4.1357,11.99 4.0679,12 4,12 2.8954,12 2,11.1 2,10 2,8.9 2.8954,8 4,8 Z"/>
</svg>

<svg xmlns="http://www.w3.org/2000/svg" style="clip-rule:evenodd;fill-rule:evenodd;stroke-linejoin:round;stroke-miterlimit:2" version="1.1" viewBox="0 0 16 16">
 <defs>
  <style id="current-color-scheme" type="text/css">
   .ColorScheme-Text { color:#dfdfdf; } .ColorScheme-Highlight { color:#4285f4; } .ColorScheme-NeutralText { color:#ff9800; } .ColorScheme-PositiveText { color:#4caf50; } .ColorScheme-NegativeText { color:#f44336; }
  </style>
 </defs>
 <path style="fill-rule:nonzero;fill:currentColor;" class="ColorScheme-Text" d="m4 6c-2.209 0-4 1.79-4 4s1.791 4 4 4c0.242 0 0.484-0.02 0.723-0.07 0.739 1.55 2.235 2.07 5.277 2.07 6 0 6-2 6-10h-12zm0 2h8e-3c0.011 1.6 0.052 2.94 0.195 3.99-0.067 0-0.135 0.01-0.203 0.01-1.105 0-2-0.9-2-2s0.895-2 2-2z"/>
</svg>
